wall-sconce-outline.svg

<svg fill="currentColor" viewBox="0 0 24 24"><path d="m13.7 6 2.22 5h-5.84l2.22-5zM15 4h-4l-4 9h12zM4 14v8h2v-3h8v-5h-2v3H6v-3z"/></svg>

<svg  viewBox="0 0 24 24" fill="currentColor"><path  d="M13.7 6L15.92 11H10.08L12.3 6H13.7M15 4H11L7 13H19L15 4M4 14V22H6V19H14V14H12V17H6V14H4Z"/></svg>
